svg/ok.svg

<svg width="284" height="284" viewBox="0 0 284 284" fill="none" xmlns="http://www.w3.org/2000/svg">
<path fill-rule="evenodd" clip-rule="evenodd" d="M234.098 71C231.263 71 228.599 72.105 226.597 74.109L112.543 188.251L57.7208 138.667C55.7688 136.898 53.2418 135.923 50.6088 135.923C47.6148 135.923 44.7458 137.197 42.7418 139.415C40.8398 141.515 39.8708 144.23 40.0138 147.06C40.1558 149.888 41.3898 152.492 43.4918 154.394L105.798 210.744C107.751 212.512 110.278 213.486 112.912 213.486C115.743 213.486 118.407 212.384 120.414 210.379L241.599 89.101C243.602 87.098 244.704 84.435 244.703 81.602C244.701 78.768 243.597 76.105 241.596 74.108C239.594 72.104 236.931 71 234.098 71Z" fill="#1A1919"/>
</svg>

<svg width="284" height="284" viewBox="0 0 284 284" xmlns="http://www.w3.org/2000/svg">
    <path d="M234.098 71a10.533 10.533 0 0 0-7.501 3.109L112.543 188.251 57.72 138.667a10.574 10.574 0 0 0-7.112-2.744 10.622 10.622 0 0 0-7.867 3.492 10.522 10.522 0 0 0-2.728 7.645 10.537 10.537 0 0 0 3.478 7.334l62.306 56.35a10.582 10.582 0 0 0 7.114 2.742c2.83 0 5.495-1.102 7.502-3.107L241.599 89.101a10.53 10.53 0 0 0 3.104-7.499 10.53 10.53 0 0 0-3.107-7.494A10.529 10.529 0 0 0 234.098 71z" fill="#1A1918" fill-rule="evenodd"/>
</svg>
